Arsenal/img/howWeWorkIcon6.svg

<svg width="40" height="40" viewBox="0 0 40 40" fill="none" xmlns="http://www.w3.org/2000/svg">
<g clip-path="url(#clip0)">
<path d="M1.37693 31.6253L19.3589 13.6432C18.2769 10.1201 19.1528 6.18819 21.6284 3.45799C24.0704 0.764893 27.8333 -0.491461 31.4045 0.176558C32.5993 0.400064 33.7276 0.876764 34.8626 1.29753L30.7512 5.27791L31.5308 8.38755L34.6129 9.26728L38.745 5.22237C39.031 6.01491 39.3499 6.80402 39.5838 7.61391C40.1153 9.45446 40.1339 11.4295 39.639 13.2803C38.7171 16.728 36.0276 19.529 32.6274 20.6052C30.5964 21.248 28.3846 21.2579 26.3479 20.6323L8.36594 38.6144C6.53843 40.442 3.19466 40.4819 1.37693 38.6144C-0.460342 36.7265 -0.457608 33.5924 1.37693 31.6253Z" fill="#DE6518"/>
</g>
<defs>
<clipPath id="clip0">
<rect width="40" height="40" fill="white"/>
</clipPath>
</defs>
</svg>

<svg width="40" height="40" fill="none" xmlns="http://www.w3.org/2000/svg"><g clip-path="url(#clip0)"><path d="M1.377 31.625l17.982-17.982c-1.082-3.523-.206-7.455 2.27-10.185C24.07.765 27.832-.492 31.403.177c1.195.223 2.324.7 3.459 1.12l-4.112 3.98.78 3.11 3.082.88 4.132-4.045c.286.793.605 1.582.839 2.392.531 1.84.55 3.816.055 5.666-.922 3.448-3.611 6.249-7.012 7.325a10.6 10.6 0 01-6.28.027L8.367 38.614c-1.828 1.828-5.171 1.868-6.99 0-1.836-1.887-1.834-5.022 0-6.989z" fill="#DE6518"/></g><defs><clipPath id="clip0"><path fill="#fff" d="M0 0h40v40H0z"/></clipPath></defs></svg>
